X:1
T:Partition sans titre
C:Compositeur / Arrangeur
L:1/8
M:4/4
I:linebreak $
K:D
V:1 treble nm="Violon" snm="Vln."
V:1
"D" d2 AF DFAF |"G" GABG"A" E2 ed | cdcB AABc |"D" defd"A" AABc |"D" d2 AF DFAF | %5
"G" GABG"A" E2 ed | cdcB AABc |1"D" dfec dABc :|2"D" dfec d2 ef |:"G" gfed"A" cABc |"D" daaa bafd | %11
"A7" gfed cABc |"D" dAFA Bdef |"G" gfed"A" cABc |"D" daaa bafd |"A7" gfed cABc |1"D" dfec d2 ef :|2 %17
"D" dfec dABc |] %18
